flaticon/baby/safety-pin-2.svg

<svg xmlns="http://www.w3.org/2000/svg" width="32" height="32" viewBox="0 0 24 24">
    <path d="M 22.566406 15.625 L 9.949219 3.007812 L 8.371094 1.433594 C 7.449219 0.507812 6.214844 0 4.902344 0 C 3.585938 0 2.355469 0.507812 1.433594 1.433594 C 0.507812 2.355469 0 3.585938 0 4.902344 C 0 6.214844 0.507812 7.449219 1.433594 8.371094 L 3.46875 10.40625 L 15.625 22.566406 C 16.582031 23.519531 17.839844 24 19.09375 24 C 20.351562 24 21.609375 23.519531 22.566406 22.566406 C 24.476562 20.652344 24.476562 17.539062 22.566406 15.625 Z M 0.890625 4.902344 C 0.890625 3.824219 1.308594 2.816406 2.0625 2.0625 C 2.816406 1.308594 3.824219 0.890625 4.902344 0.890625 C 5.976562 0.890625 6.984375 1.308594 7.738281 2.0625 L 9.464844 3.789062 C 9.015625 5.871094 7.351562 6.269531 6.835938 6.339844 C 6.585938 6.375 6.382812 6.570312 6.335938 6.820312 C 5.945312 8.90625 4.351562 9.375 3.796875 9.476562 L 2.0625 7.738281 C 1.308594 6.984375 0.890625 5.976562 0.890625 4.902344 Z M 4.53125 10.207031 C 5.53125 9.859375 6.761719 8.988281 7.171875 7.1875 C 7.851562 7.042969 9.519531 6.496094 10.1875 4.511719 L 19.945312 14.269531 C 18.421875 14 16.800781 14.453125 15.625 15.625 C 14.453125 16.800781 14.003906 18.421875 14.269531 19.945312 Z M 21.933594 21.933594 C 20.367188 23.5 17.820312 23.5 16.257812 21.933594 C 14.691406 20.367188 14.691406 17.820312 16.257812 16.257812 C 17.039062 15.472656 18.066406 15.082031 19.09375 15.082031 C 20.121094 15.082031 21.152344 15.472656 21.933594 16.257812 C 23.5 17.820312 23.5 20.367188 21.933594 21.933594 Z M 21.933594 21.933594"/>
    <path d="M21.304688 16.886719C20.714844 16.296875 19.929688 15.972656 19.09375 15.972656 18.261719 15.972656 17.476562 16.296875 16.886719 16.886719 16.300781 17.476562 15.972656 18.261719 15.972656 19.09375 15.972656 19.929688 16.300781 20.714844 16.886719 21.304688 17.496094 21.910156 18.296875 22.214844 19.09375 22.214844 19.894531 22.214844 20.695312 21.910156 21.304688 21.304688 21.890625 20.714844 22.214844 19.929688 22.214844 19.09375 22.214844 18.261719 21.890625 17.476562 21.304688 16.886719zM20.671875 20.671875C19.804688 21.542969 18.386719 21.542969 17.519531 20.671875 17.097656 20.253906 16.867188 19.691406 16.867188 19.09375 16.867188 18.5 17.097656 17.9375 17.519531 17.519531 17.9375 17.097656 18.5 16.867188 19.09375 16.867188 19.691406 16.867188 20.253906 17.097656 20.671875 17.519531 21.09375 17.9375 21.324219 18.5 21.324219 19.09375 21.324219 19.691406 21.09375 20.253906 20.671875 20.671875zM5.847656 5.847656C6.714844 4.976562 6.714844 3.5625 5.847656 2.695312 4.976562 1.824219 3.5625 1.824219 2.695312 2.695312 1.824219 3.5625 1.824219 4.976562 2.695312 5.847656 3.128906 6.28125 3.699219 6.5 4.269531 6.5 4.839844 6.5 5.414062 6.28125 5.847656 5.847656zM3.324219 3.324219C3.585938 3.0625 3.929688 2.933594 4.269531 2.933594 4.613281 2.933594 4.957031 3.0625 5.21875 3.324219 5.738281 3.847656 5.738281 4.695312 5.21875 5.21875 4.695312 5.738281 3.847656 5.738281 3.324219 5.21875 2.800781 4.695312 2.800781 3.847656 3.324219 3.324219zM3.324219 3.324219"/>
</svg>

<svg xmlns="http://www.w3.org/2000/svg" width="32" height="32" viewBox="0 0 24 24">
    <path d="M22.566 15.625L9.95 3.008 8.371 1.434A4.862 4.862 0 0 0 4.902 0a4.855 4.855 0 0 0-3.468 1.434A4.855 4.855 0 0 0 0 4.902c0 1.313.508 2.547 1.434 3.47l2.035 2.034 12.156 12.16A4.908 4.908 0 0 0 19.094 24a4.91 4.91 0 0 0 3.472-1.434 4.92 4.92 0 0 0 0-6.941zM.891 4.902c0-1.078.418-2.086 1.171-2.84A3.988 3.988 0 0 1 4.902.891c1.075 0 2.082.418 2.836 1.171L9.465 3.79c-.45 2.082-2.113 2.48-2.63 2.55a.598.598 0 0 0-.5.481c-.39 2.086-1.983 2.555-2.538 2.657L2.062 7.738A3.985 3.985 0 0 1 .891 4.902zm3.64 5.305c1-.348 2.23-1.219 2.64-3.02.68-.144 2.349-.69 3.016-2.675l9.758 9.758a4.896 4.896 0 0 0-4.32 1.355 4.907 4.907 0 0 0-1.355 4.32zm17.403 11.727a4.015 4.015 0 0 1-5.676 0 4.015 4.015 0 0 1 2.836-6.852 4.015 4.015 0 0 1 2.84 6.852zm0 0"/>
    <path d="M21.305 16.887a3.105 3.105 0 0 0-2.211-.914 3.12 3.12 0 0 0-3.121 3.121c0 .836.328 1.62.914 2.21.61.606 1.41.91 2.207.91.8 0 1.601-.304 2.21-.91.587-.59.91-1.374.91-2.21 0-.832-.323-1.617-.91-2.207zm-.633 3.785a2.228 2.228 0 0 1-3.805-1.578c0-.594.23-1.157.653-1.574.418-.422.98-.653 1.574-.653.597 0 1.16.23 1.578.653.422.418.652.98.652 1.574 0 .597-.23 1.16-.652 1.578zm0 0M5.848 5.848a2.228 2.228 0 1 0-3.152 0 2.23 2.23 0 0 0 3.152 0zM3.324 3.324c.262-.261.606-.39.946-.39a1.336 1.336 0 0 1 .949 2.285 1.34 1.34 0 1 1-1.895-1.895zm0 0"/>
</svg>
